X: 132090
T: Metal Man
C: Joe Liddy
Z: BB
S: "The Leitrim Fiddler" (Dublin 1981)
N: Uses dotted rhythm
L: 1/8
M: 4/4
R: hornpipe
Q: 1/4 = 160
K: G
dc | BG (3AGF GFDC | DEFD GABc | dg (3gfg fdcA | Bcde fdcA |
BG (3AGF GFDC | DEFD GABc | dg (3gfg dfdc | B2 G2 G2 :|
(3def | g2 gf dcde | fdcd fdef | gagf dfed | cfdc BGFD |
G2 (3AGF GFDF | GABc defg | ag (3agf dfdc | B2 G2 G2 |
(3def | g2 gf dcde | fdcd f2 ga | gagf d2 (3fdc | (3Bcd cB GFDF |
GAGF GFDF | GABc defg | bg (3agf dfdc | B2 G2 G2 :|
%%%%%%%%%%%%%%%%%%
